app/img/info/council-account-bg.svg

<svg width="238" height="237" viewBox="0 0 238 237" fill="none" xmlns="http://www.w3.org/2000/svg">
<path fill-rule="evenodd" clip-rule="evenodd" d="M194.011 139.405C182.364 143.533 169.21 140.568 160.482 131.84L147.283 118.656L154.578 111.36H157.647C171.955 111.36 185.313 104.423 193.643 93.1931L219.106 118.661L205.927 131.84C202.521 135.252 198.502 137.798 194.011 139.405ZM171.146 189.446C166.337 189.446 161.701 188.406 157.385 186.352C146.22 181.051 138.999 169.647 138.999 157.298V138.659H149.343L151.506 140.817C160.03 149.346 171.588 153.932 183.33 153.932C185.484 153.932 187.642 153.743 189.785 153.429V189.446H171.146ZM105.829 205.564C102.428 202.162 99.8963 198.159 98.3049 193.653C94.1522 182.021 97.1063 168.861 105.829 160.118L119.009 146.939L126.309 154.235V157.298C126.309 171.577 133.237 184.93 144.472 193.3L119.014 218.758L105.829 205.564ZM48.2271 170.796C48.2271 165.977 49.2715 161.357 51.3453 157.03C56.622 145.87 68.0157 138.659 80.3643 138.659H99.0091V148.978L96.8457 151.141C86.755 161.257 82.2194 175.6 84.2534 189.446H48.2271V170.796ZM32.103 105.482C35.5247 102.055 39.5281 99.5191 44.0041 97.9376C55.6564 93.7899 68.8207 96.7539 77.5487 105.487L90.7279 118.661L83.4321 125.962H80.3636C66.0754 125.962 52.7272 132.89 44.3771 144.114L18.9239 118.661L32.103 105.482ZM66.8868 47.8817C71.7009 47.8817 76.331 48.9211 80.6478 50.9701C91.8028 56.2716 99.0091 67.6752 99.0091 80.0239V98.6637H88.6846L86.5312 96.5053C76.4305 86.4095 62.0876 81.864 48.2271 83.8931V47.8817H66.8868ZM119.005 18.5594L132.204 31.7535C135.63 35.1801 138.167 39.1836 139.748 43.6595C143.891 55.2969 140.927 68.4661 132.204 77.2042L119.01 90.3883L111.704 83.0876V80.024C111.704 65.7458 104.786 52.3975 93.5564 44.0225L119.005 18.5594ZM126.308 125.962V136.282L119.007 128.981L111.706 136.282V125.962H101.387L108.688 118.661L101.387 111.361H111.706V101.036L119.007 108.337L126.308 101.041V111.361H136.627L129.327 118.666L136.632 125.962H126.308ZM189.785 66.5264C189.785 71.3306 188.741 75.9458 186.667 80.2775C181.411 91.4475 170.022 98.6637 157.648 98.6637H138.999V88.364L141.192 86.1808C151.273 76.0751 155.813 61.7272 153.794 47.8817H189.785V66.5264ZM237.064 118.661L199.898 81.486C201.609 76.7117 202.484 71.6937 202.484 66.5265V35.1849H149.967C147.793 30.6095 144.854 26.4519 141.189 22.7816L119.008 0.60083L81.8678 37.7611C77.0736 36.0552 72.0605 35.1849 66.8883 35.1849H35.5319V87.7275C30.9565 89.9008 26.7938 92.835 23.1335 96.5053L0.972656 118.661L38.118 155.807C36.4072 160.596 35.5319 165.619 35.5319 170.796V202.137H88.0943C90.2676 206.723 93.1969 210.885 96.8473 214.536L119.008 236.722L156.168 199.561C160.963 201.267 165.976 202.137 171.148 202.137H202.484V149.605C207.085 147.412 211.252 144.477 214.908 140.817L237.064 118.661Z" fill="#3CD993"/>
</svg>

<svg width="238" height="237" fill="none" xmlns="http://www.w3.org/2000/svg"><path fill-rule="evenodd" clip-rule="evenodd" d="M194.011 139.405c-11.647 4.128-24.801 1.163-33.529-7.565l-13.199-13.184 7.295-7.296h3.069c14.308 0 27.666-6.937 35.996-18.167l25.463 25.468-13.179 13.179a31.936 31.936 0 0 1-11.916 7.565Zm-22.865 50.041c-4.809 0-9.445-1.04-13.761-3.094-11.165-5.301-18.386-16.705-18.386-29.054v-18.639h10.344l2.163 2.158c8.524 8.529 20.082 13.115 31.824 13.115 2.154 0 4.312-.189 6.455-.503v36.017h-18.639Zm-65.317 16.118c-3.401-3.402-5.933-7.405-7.524-11.911-4.153-11.632-1.199-24.792 7.524-33.535l13.18-13.179 7.3 7.296v3.063c0 14.279 6.928 27.632 18.163 36.002l-25.458 25.458-13.185-13.194Zm-57.602-34.768c0-4.819 1.045-9.439 3.118-13.766 5.277-11.16 16.67-18.371 29.02-18.371h18.644v10.319l-2.163 2.163c-10.091 10.116-14.627 24.459-12.593 38.305H48.227v-18.65Zm-16.124-65.314c3.422-3.427 7.425-5.963 11.901-7.544 11.652-4.148 24.817-1.184 33.545 7.549l13.179 13.174-7.296 7.301h-3.068c-14.289 0-27.637 6.928-35.987 18.152l-25.453-25.453 13.179-13.179Zm34.784-57.6c4.814 0 9.444 1.04 13.76 3.088C91.804 56.272 99.01 67.675 99.01 80.024v18.64H88.685l-2.154-2.159c-10.1-10.096-24.443-14.641-38.304-12.612V47.882h18.66Zm52.118-29.323 13.199 13.194c3.426 3.427 5.963 7.43 7.544 11.907 4.143 11.637 1.179 24.806-7.544 33.544L119.01 90.388l-7.306-7.3v-3.064c0-14.278-6.918-27.627-18.148-36.002l25.449-25.463Zm7.303 107.403v10.32l-7.301-7.301-7.301 7.301v-10.32h-10.319l7.301-7.301-7.301-7.3h10.319v-10.325l7.301 7.301 7.301-7.296v10.32h10.319l-7.3 7.305 7.305 7.296h-10.324Zm63.477-59.436c0 4.805-1.044 9.42-3.118 13.752-5.256 11.17-16.645 18.386-29.019 18.386h-18.649v-10.3l2.193-2.183c10.081-10.106 14.621-24.454 12.602-38.3h35.991v18.645Zm47.279 52.135-37.166-37.175a44.154 44.154 0 0 0 2.586-14.96V35.185h-52.517c-2.174-4.576-5.113-8.733-8.778-12.403L119.008.6l-37.14 37.16a44.45 44.45 0 0 0-14.98-2.576H35.532v52.543a44.269 44.269 0 0 0-12.398 8.777L.973 118.661l37.145 37.146a44.349 44.349 0 0 0-2.586 14.989v31.341h52.562a44.305 44.305 0 0 0 8.753 12.399l22.161 22.186 37.16-37.161a44.454 44.454 0 0 0 14.98 2.576h31.336v-52.532a44.605 44.605 0 0 0 12.424-8.788l22.156-22.156Z" fill="#3CD993"/></svg>
